svg/up_arrow.svg

<svg xmlns="http://www.w3.org/2000/svg" viewBox="0 0 32 32" enable-background="new 0 0 32 32"><path d="M 16 4.09375 L 15.28125 4.78125 L 6.78125 13.28125 L 8.21875 14.71875 L 15 7.9375 L 15 28 L 17 28 L 17 7.9375 L 23.78125 14.71875 L 25.21875 13.28125 L 16.71875 4.78125 L 16 4.09375 z" color="#000" overflow="visible" enable-background="accumulate"/></svg>

<svg xmlns="http://www.w3.org/2000/svg" viewBox="0 0 32 32"><path d="M16 4.094l-.72.687-8.5 8.5 1.44 1.44L15 7.936V28h2V7.937l6.78 6.782 1.44-1.44-8.5-8.5-.72-.686z"/></svg>
